src/assets/filled/Sticker.svg

<svg width="24" height="24" viewBox="0 0 24 24"  xmlns="http://www.w3.org/2000/svg">
<path d="M21.96 11.6598C20.77 10.9098 19.39 10.4998 17.97 10.4998C13.83 10.4998 10.47 13.8598 10.47 17.9998C10.47 19.4198 10.87 20.7898 11.62 21.9798C11.16 21.9698 10.69 21.9198 10.21 21.8498C6.09999 21.1498 2.78999 17.8198 2.10999 13.6998C0.97999 6.84977 6.81999 1.00978 13.67 2.13978C17.79 2.81978 21.12 6.12977 21.82 10.2398C21.9 10.7198 21.95 11.1998 21.96 11.6598Z" />
<path d="M13.38 21.86C12.5 20.82 11.97 19.47 11.97 18C11.97 14.69 14.66 12 17.97 12C19.44 12 20.79 12.53 21.83 13.41" />
</svg>

<?xml version="1.0" encoding="UTF-8"?>
<svg width="24" height="24" viewBox="0 0 24 24" xmlns="http://www.w3.org/2000/svg">
 <path d="m21.96 11.66c-1.19-0.75-2.57-1.16-3.99-1.16-4.14 0-7.5 3.36-7.5 7.5 0 1.42 0.4 2.79 1.15 3.98-0.46-0.01-0.93-0.06-1.41-0.13-4.11-0.7-7.42-4.03-8.1-8.15-1.13-6.85 4.71-12.69 11.56-11.56 4.12 0.68 7.45 3.99 8.15 8.1 0.08 0.48 0.13 0.96 0.14 1.42z"/>
 <path d="m13.38 21.86c-0.88-1.04-1.41-2.39-1.41-3.86 0-3.31 2.69-6 6-6 1.47 0 2.82 0.53 3.86 1.41"/>
</svg>
